svgs/sharp-regular/cart-shopping.svg

<svg xmlns="http://www.w3.org/2000/svg" viewBox="0 0 576 512"><!--! Font Awesome Pro 6.6.0 by @fontawesome - https://fontawesome.com License - https://fontawesome.com/license (Commercial License) Copyright 2024 Fonticons, Inc. --><path d="M24 0L0 0 0 48l24 0 52.1 0 60.3 316.5 3.7 19.5 19.9 0 328 0 24 0 0-48-24 0-308.1 0-9.1-48L496 288 561 80l15-48-50.3 0L122 32l-2.4-12.5L115.9 0 96 0 24 0zM161.6 240L131.1 80l379.6 0-50 160-299.1 0zM176 512a48 48 0 1 0 0-96 48 48 0 1 0 0 96zm336-48a48 48 0 1 0 -96 0 48 48 0 1 0 96 0z"/></svg>

<svg xmlns="http://www.w3.org/2000/svg" viewBox="0 0 576 512"><!--! Font Awesome Pro 6.5.2 by @fontawesome - https://fontawesome.com License - https://fontawesome.com/license (Commercial License) Copyright 2024 Fonticons, Inc. --><path d="M24 0H0V48H24 76.1l60.3 316.5 3.7 19.5H160 488h24V336H488 179.9l-9.1-48H496L561 80l15-48H525.7 122l-2.4-12.5L115.9 0H96 24zM161.6 240L131.1 80H510.7l-50 160H161.6zM176 512a48 48 0 1 0 0-96 48 48 0 1 0 0 96zm336-48a48 48 0 1 0 -96 0 48 48 0 1 0 96 0z"/></svg>
